X: 19108
T: Irish March
R: jig
M: 6/8
K: Gmajor
"G"B2 G "C"c2 A|"G"B2 d "D"A3|"G"B2 d "C"c2 e|"G"B2 d "D"A3|
"G"B>AB "C"c3|"G"B>AG "D"A3|"G"B>AB "C"e>d e|"G"B>AG "D"A2 D|
"G/B"G>AB "C"c>GA|"G/D"B>cd "D"A2D|"G"G>AB "C"c>GA|"G"B>cd "D"A3|
"G/B"GBG "C"ege|"G/D"GBG "D"FAF|"G"GBG "C"cec|"G"GBG "D"d>AD|
"G"G>AB "C"c>de|"G"de/f/g "D"f2 d|"G"G>AB "C"c>de|"G"de/f/g "D"f2 d|
"G"zGd "C"c e2|"G"zdg "D"f a2|"G/B"g2 d "C"e2 c|"G/D"d2 G "D"A2 F|
"G"G>AB "C"c>dc|"G"B>AG "D"A2 D|"G"GG/F/G "C"Eec|"G"BGg "D"f d2|
"G"B>cd "C"e c2|"G"d>ag "D"f d2|"G/B"d>gd "C"e c2|"G/D"G>AG "D"F D2|
"G"GA/G/A/B/ "C"c/d/ed/c/|"G"B/A/B/c/d/e/ "D"f/g/ag/f/|"G/B"g f/e/d "C"e>dc|"G/D"Bc/B/A/G/ "D"F/E/F/G/A/F/|
"G"G/A/B/c/d/B/ "C"c/d/e/f/g|"G"G/A/B/c/d/e/ "D"f>ga/f/|"G"g3"C"g3|"G"g3 "D"f3|
"G"Gg/d/B/G/ "C"c/B/c/d/c|"G"Aa/g/f/e/ "D"d/^c/d/e/d|"G"gB/c/d "C"e>dc|
"G"Bc/B/ "D"A/G/ F>ED|"C"E>FG "D"F>EF|1 "C"G6:|2 "C"G6|"G" G6||

